img/icons/social/youtube.svg

<svg width="24" height="24" viewBox="0 0 24 24" fill="none" xmlns="http://www.w3.org/2000/svg">
<path fill-rule="evenodd" clip-rule="evenodd" d="M21.8392 5.15941C22.1799 5.51057 22.4218 5.94541 22.5406 6.42C22.8578 8.1787 23.0118 9.96295 23.0006 11.75C23.0069 13.5103 22.8529 15.2676 22.5406 17C22.4218 17.4746 22.1799 17.9094 21.8392 18.2606C21.4986 18.6118 21.0713 18.8668 20.6006 19C18.8806 19.46 12.0006 19.46 12.0006 19.46C12.0006 19.46 5.12057 19.46 3.40057 19C2.93939 18.8738 2.51855 18.6308 2.17872 18.2945C1.83888 17.9581 1.59153 17.5398 1.46057 17.08C1.14334 15.3213 0.989351 13.537 1.00057 11.75C0.991808 9.97631 1.14579 8.20556 1.46057 6.46C1.57936 5.98541 1.82129 5.55057 2.16192 5.19941C2.50255 4.84824 2.92982 4.59318 3.40057 4.46C5.12057 4 12.0006 4 12.0006 4C12.0006 4 18.8806 4 20.6006 4.42C21.0713 4.55318 21.4986 4.80824 21.8392 5.15941ZM15.5 11.75L9.75 15.02V8.47998L15.5 11.75Z" fill="white"/>
</svg>

<svg width="24" height="24" viewBox="0 0 24 24" fill="none" xmlns="http://www.w3.org/2000/svg"><path fill-rule="evenodd" clip-rule="evenodd" d="M21.84 5.16c.34.35.582.785.7 1.26.318 1.759.472 3.543.46 5.33a29.008 29.008 0 01-.46 5.25 2.78 2.78 0 01-1.94 2c-1.72.46-8.6.46-8.6.46s-6.88 0-8.6-.46a2.78 2.78 0 01-1.94-1.92A29 29 0 011 11.75a29 29 0 01.46-5.29 2.78 2.78 0 011.94-2C5.12 4 12 4 12 4s6.88 0 8.6.42c.471.133.899.388 1.24.74zm-6.34 6.59l-5.75 3.27V8.48l5.75 3.27z" fill="#fff"/></svg>
